Printex-remake/img/icons/catalog_small/03.svg

<svg width="142" height="87" viewBox="0 0 142 87" fill="none" xmlns="http://www.w3.org/2000/svg">
<path d="M91.009 59.4342L121.41 53.2543L99.5589 59.4342L80.7133 76.9024L50.8249 59.5348L91.009 59.4342Z" fill="#E5D795"/>
<rect width="34.568" height="23.3239" transform="matrix(0.864625 0.502419 -0.864625 0.502419 112.03 24.5809)" fill="#E5D795"/>
<path d="M79.8942 77.076L38 52.9799L48.2598 34.9078L91.009 59.0039L79.8942 77.076Z" fill="white"/>
<path d="M79.8942 77.076L38 52.9799L48.2598 34.9078L91.009 59.0039L79.8942 77.076Z" stroke="black" stroke-linejoin="bevel"/>
<path d="M80.7392 28.8838L51.6797 34.3915L90.9493 56.4222L119.223 50.9145L80.7392 28.8838Z" fill="white"/>
<path d="M121.787 52.9799L79.8926 28.8838L90.1524 10.8118L132.902 34.9079L121.787 52.9799Z" fill="white"/>
<path d="M121.787 52.9799L79.8926 28.8838L90.1524 10.8118L132.902 34.9079L121.787 52.9799Z" stroke="black" stroke-linejoin="bevel"/>
<path d="M119.734 50.8899L129.057 35.7684L91.065 14.6228L82.46 29.7443" stroke="black" stroke-linejoin="bevel"/>
<path d="M79.8951 28.8838L48.2607 34.9078L91.0099 59.0039L121.789 52.9799L79.8951 28.8838Z" stroke="black" stroke-linejoin="bevel"/>
<path d="M79.0388 32.233L89.2989 37.8265L68.833 41.8144L58.5195 36.1053L79.0388 32.233Z" fill="#FFEFA6" stroke="black" stroke-linejoin="bevel"/>
<path d="M92.7185 39.9783L102.979 45.5718L82.5127 49.5597L72.1992 43.8505L92.7185 39.9783Z" stroke="black" stroke-linejoin="bevel"/>
<path d="M89.2998 30.1578L89.9892 29.3635C90.6624 28.5877 91.1187 27.6457 91.3112 26.6341C91.5085 25.5972 91.9827 24.634 92.683 23.848L93.1316 23.3445C93.5169 22.912 93.8558 22.4397 94.1425 21.9355L95.0547 20.3314" stroke="black" stroke-linejoin="bevel"/>
<path d="M91.8633 31.879L92.5527 31.0847C93.2259 30.3089 93.6822 29.3669 93.8746 28.3553C94.0719 27.3184 94.5462 26.3552 95.2465 25.5692L95.6951 25.0656C96.0804 24.6332 96.4192 24.1609 96.7059 23.6567L97.6181 22.0526" stroke="black" stroke-linejoin="bevel"/>
<path d="M116.659 46.5088L117.349 45.7144C118.022 44.9387 118.478 43.9967 118.671 42.985C118.868 41.9481 119.342 40.9849 120.042 40.1989L120.491 39.6954C120.876 39.2629 121.215 38.7907 121.502 38.2865L122.414 36.6824" stroke="black" stroke-linejoin="bevel"/>
</svg>

<svg width="142" height="87" fill="none" xmlns="http://www.w3.org/2000/svg"><path d="M91.009 59.434l30.401-6.18-21.851 6.18-18.846 17.468-29.888-17.367 40.184-.1z" fill="#E5D795"/><path fill="#E5D795" d="M112.03 24.58l29.888 17.369-20.166 11.718-29.889-17.368z"/><path d="M79.894 77.076L38 52.98l10.26-18.072 42.749 24.096-11.115 18.072z" fill="#fff"/><path d="M79.894 77.076L38 52.98l10.26-18.072 42.749 24.096-11.115 18.072z" stroke="#000" stroke-linejoin="bevel"/><path d="M80.74 28.884l-29.06 5.508 39.27 22.03 28.273-5.508-38.484-22.03z" fill="#fff"/><path d="M121.787 52.98L79.893 28.884l10.26-18.072 42.749 24.096-11.115 18.072z" fill="#fff"/><path d="M121.787 52.98L79.893 28.884l10.26-18.072 42.749 24.096-11.115 18.072z" stroke="#000" stroke-linejoin="bevel"/><path d="M119.734 50.89l9.323-15.122-37.992-21.145-8.605 15.121m-2.565-.86l-31.634 6.024L91.01 59.004l30.779-6.024-41.894-24.096z" stroke="#000" stroke-linejoin="bevel"/><path d="M79.039 32.233l10.26 5.594-20.466 3.987-10.313-5.709 20.519-3.872z" fill="#FFEFA6" stroke="#000" stroke-linejoin="bevel"/><path d="M92.719 39.978l10.26 5.594-20.466 3.988-10.314-5.71 20.52-3.872zm-3.419-9.82l.69-.795a5.826 5.826 0 001.321-2.729c.197-1.037.672-2 1.372-2.786l.449-.503a8.245 8.245 0 001.01-1.41l.913-1.604m-3.192 11.548l.69-.794a5.825 5.825 0 001.322-2.73c.197-1.037.671-2 1.371-2.786l.45-.503a8.24 8.24 0 001.01-1.41l.912-1.603m19.041 24.456l.69-.795a5.832 5.832 0 001.322-2.729c.197-1.037.671-2 1.371-2.786l.449-.504a8.278 8.278 0 001.011-1.409l.912-1.604" stroke="#000" stroke-linejoin="bevel"/></svg>
